X:314
T: Grand Parade
N: O'Farrell's Pocket Companion v.4 (Sky ed. p.139)
M: 2/4
R: march
L: 1/8
Q: 250
K: D
d/e/| fdAF| GBA>d| fd AG/F/| GEE>g|
fdAF| G/B/d/B/ A>d| Bgfe| d>e d :|
c/d/| eAfA| gAfA| eA d/f/a/f/ | b/a/g/f/ e>g|
fdAF| G/B/d/B/ A>d| Bb a/b/a/g/| fd d :|
